svgs/light/tower-observation.svg

<svg xmlns="http://www.w3.org/2000/svg" viewBox="0 0 512 512"><!--! Font Awesome Pro 6.1.1 by @fontawesome - https://fontawesome.com License - https://fontawesome.com/license (Commercial License) Copyright 2022 Fonticons, Inc. --><path d="M248.8 1.689C253.3-.563 258.6-.563 263.2 1.689L439.2 89.69C447.1 93.64 450.3 103.3 446.3 111.2C442.4 119.1 432.7 122.3 424.8 118.3L416 113.9V192C416 218.5 394.5 240 368 240H360.2L399.8 477.4C399.9 478.3 400 479.1 400 480H496C504.8 480 512 487.2 512 496C512 504.8 504.8 512 496 512H16C7.164 512 0 504.8 0 496C0 487.2 7.164 480 16 480H111.1C111.1 479.1 112.1 478.3 112.2 477.4L151.8 240H144C117.5 240 96 218.5 96 192V113.9L87.16 118.3C79.25 122.3 69.64 119.1 65.69 111.2C61.74 103.3 64.94 93.64 72.84 89.69L248.8 1.689zM128 97.89V127.1H384V97.89L256 33.89L128 97.89zM128 160V192C128 200.8 135.2 208 144 208H368C376.8 208 384 200.8 384 192V160H128zM359.4 480L256 391.4L152.6 480H359.4zM183.8 242.6L177.3 281.7L256 349.2L334.7 281.7L328.2 242.6C328.1 241.7 327.1 240.9 327.1 240H184C184 240.9 183.9 241.7 183.8 242.6H183.8zM171.1 318.6L151 439.2L231.4 370.3L171.1 318.6zM280.6 370.3L360.1 439.2L340.9 318.6L280.6 370.3z"/></svg>

<svg xmlns="http://www.w3.org/2000/svg" viewBox="0 0 512 512"><!--! Font Awesome Pro 6.4.2 by @fontawesome - https://fontawesome.com License - https://fontawesome.com/license (Commercial License) Copyright 2023 Fonticons, Inc. --><path d="M248.8 1.7c4.5-2.3 9.8-2.3 14.3 0l176 88c7.9 4 11.1 13.6 7.2 21.5s-13.6 11.1-21.5 7.2l-8.8-4.4V192c0 26.5-21.5 48-48 48h-7.8l39.6 237.4c.1 .9 .2 1.8 .2 2.6h96c8.8 0 16 7.2 16 16s-7.2 16-16 16H16c-8.8 0-16-7.2-16-16s7.2-16 16-16h96c0-.9 .1-1.7 .2-2.6L151.8 240H144c-26.5 0-48-21.5-48-48V113.9l-8.8 4.4c-7.9 4-17.5 .7-21.5-7.2s-.7-17.5 7.2-21.5l176-88zM256 33.9l-128 64V128H384V97.9l-128-64zM128 160v32c0 8.8 7.2 16 16 16H368c8.8 0 16-7.2 16-16V160H128zM359.4 480L256 391.4 152.6 480H359.4zM184 240c0 .9-.1 1.7-.2 2.6l-6.5 39.1L256 349.2l78.7-67.5-6.5-39.1c-.1-.9-.2-1.8-.2-2.6H184zm-12.9 78.6L151 439.2l80.4-68.9-60.3-51.7zm109.5 51.7L361 439.2 340.9 318.6l-60.3 51.7z"/></svg>
